icons/svg/xing-circle.svg

﻿<?xml version="1.0" encoding="utf-8"?>
<!DOCTYPE svg PUBLIC "-//W3C//DTD SVG 1.1//EN" "http://www.w3.org/Graphics/SVG/1.1/DTD/svg11.dtd">
<svg xmlns="http://www.w3.org/2000/svg" xmlns:xlink="http://www.w3.org/1999/xlink" version="1.1" baseProfile="full" width="24" height="24" viewBox="0 0 24.00 24.00" enable-background="new 0 0 24.00 24.00" xml:space="preserve">
	<path fill="#000000" fill-opacity="1" stroke-width="0.2" stroke-linejoin="round" d="M 12.0025,2.0025C 6.48,2.0025 2.0025,6.48 2.0025,12.0025C 2.0025,17.525 6.48,22.0025 12.0025,22.0025C 17.525,22.0025 22.0025,17.525 22.0025,12.0025C 22.0025,6.48 17.525,2.0025 12.0025,2.0025 Z M 15.85,6.00125L 17.7437,6.00125C 17.8563,6.00125 17.9438,6.04 17.9937,6.11875C 18.0425,6.20125 18.0425,6.30375 17.9887,6.40625L 13.8375,13.76L 16.48,18.5887C 16.5337,18.6912 16.5337,18.7987 16.485,18.8812C 16.435,18.96 16.3475,18.9988 16.235,18.9988L 14.36,18.9988C 14.0725,18.9988 13.9313,18.8088 13.8375,18.6425L 11.1725,13.755C 11.3087,13.52 15.3462,6.3575 15.3462,6.3575C 15.4488,6.17625 15.5663,6.00125 15.85,6.00125 Z M 7.51,8.565L 9.385,8.565C 9.6725,8.565 9.81,8.75 9.9025,8.91625L 11.1913,11.1675C 11.1188,11.3038 9.17,14.7463 9.17,14.7463C 9.0725,14.9175 8.94,15.1075 8.6575,15.1075L 6.7825,15.1075C 6.67,15.1075 6.5875,15.0588 6.5375,14.98C 6.48875,14.9025 6.48875,14.795 6.5375,14.6925L 8.53,11.1675L 7.26625,8.975C 7.2125,8.8675 7.2025,8.765 7.25125,8.68625C 7.3,8.60875 7.3925,8.565 7.51,8.565 Z "/>
</svg>

<svg xmlns="http://www.w3.org/2000/svg" version="1.1" baseProfile="full" width="24" height="24" viewBox="0 0 24.00 24.00" xml:space="preserve"><path fill="#000" fill-opacity="1" stroke-width=".2" stroke-linejoin="round" d="M12.002 2.002c-5.522 0-10 4.478-10 10 0 5.523 4.478 10 10 10 5.523 0 10-4.477 10-10 0-5.522-4.477-10-10-10zm3.848 4h1.894c.112 0 .2.038.25.117.05.08.05.184-.005.286l-4.152 7.354 2.642 4.83c.054.1.054.21.005.29-.05.08-.137.12-.25.12H14.36c-.287 0-.43-.19-.522-.358l-2.665-4.887c.136-.235 4.173-7.398 4.173-7.398.103-.18.22-.356.504-.356zM7.51 8.564h1.875c.287 0 .425.185.518.35l1.288 2.253c-.07.136-2.02 3.578-2.02 3.578-.098.17-.23.36-.512.36l-1.875.002c-.113 0-.196-.05-.246-.128-.048-.078-.048-.185 0-.287l1.993-3.525-1.264-2.193c-.053-.107-.064-.21-.015-.29.05-.076.143-.12.26-.12z"/></svg>
